X: 34601
T: River Skimmer
R: reel
M: 4/4
K: Dmajor
DEFG FAde|fgfe dBAG|FAdG Bdeg|efed cAGE|
DEFG FAde|fgfe dBAG|FAdG BdeA|1 efed e2z2:|2 efed d2z2||
|:[M:4/4] e2dc edcB|[M:7/8] ABd ed cB|ABd GA Bd|c2B GA Bd|
[M:4/4] dedc edcB|[M:7/8] ABd ed cB|ABd GA Bd|c2B A2 A2:|

